X:1
T:A minor Oliver Holden, 1793
T:"From Sundry Scriptures"
T:Hear my cry, hear my cry Anthem No copyright. Transcribed from The Union Harmony, 1793.
%%score [ 1 2 3 ]
L:1/8
M:3/2
K:C
V:1 treble nm="Treble" snm="Tr."
V:2 treble-8 nm="Tenor" snm="T."
V:3 bass nm="Bass" snm="B."
V:1
"^Moderato" [Ec]8 [EB]4 | [Ec]8 z4 | c8 d4 | e8 z4 | B8 c4 | d8 B4 ||[M:4/4] A6 E2 | A2 A2 A2 A2 | %8
w: ||||||||
 (A4 ^G2) A2 | B2 B2 B2 B2 | (c4 B2) e2 | d2 A2 ^G2 G2 | A8 | c6 B2 | (A2 ^G2) A2 B2 | c4 e2 E2 | %16
w: |||||From the|end * of the|earth will I|
 A4 ^G4 | A8 | z4 e2 e2 | d2 d2 c2 c2 | B4 A4 | z8 | e2 e2 e2 e2 | d8 | c2 B2 A2 [^FB]2 | [^GB]8 | %26
w: cry to|Thee,|When my|heart is ov- er-|whelm- ed,||||||
 [Af]2 B2 d2 f2 | e4 E4 | A6 ^G2 | A4 B2 c2 | d4 d2 d2 | e8 |: c6 B2 | d2 d2 A2 ^G2 | A4 A2 z2 | %35
w: |||||||||
 e6 d2 | e2 d2 c2 d2 | e4 d2 c2 | B4 B2 B2 | c2 B2 A2 e2 | e2 d2 c2 B2 | A4 z2 B2 | c6 d2 | %43
w: |||* * and|cause Thy face, And|cause Thy face to|shine, *||
 c2 B2 A2 Bc | d4 B4 | A4 A4 :|[M:2/2]"^Vivace" z4 e3 e |: eeee e4 | e4 z2 BB | BBAA (F2 G2) | %50
w: |||||||
 A4 z4 | eeee z4 | z8 | z8 | z2 e2 d2 c/d/c | B4 B2 Bc | BA z2 z4 | z8 | e2 ef ed c2 | %59
w: |Let the peo- ple,|||praise Thee, O~ _ _|God. * * *|||Let all the peo- ple praise|
 A2 e2 c2 z2 | (([Af]4 [Ge]4)) |1 [Ac]4 e3 e :|2 [Ac]4 z4 |: B2 BB cdef | e2 e2 e2 e2 | e4 c2 BB | %66
w: Thee, O God.|||||||
 cBAG c2 e2 | cA BG c3 B | e2 e2 e3 f | B2 B2 B3 B | ABcd cBAA | B2 B2 A>Bc>e | e2 e2 e2 z c | %73
w: |||||||
 B2 G2 E2 z c | c2 c2 c3 A | B2 B2 [Ae]3 [Bd] | c6 z2 :|[M:2/4] z4 | cc BB | cc BB | cc BB | B3 B | %82
w: |||||||||
 BB z2 | cc ee | ff ff | A2 B2 | cc z2 | [Ge]3 [Gd] | [Ac]2 [Ac]2 ||[M:4/4] F4 E2 z2 | (d4 e4) | %91
w: |||||||||
 c8 |] %92
w: |
V:2
 A8 ^G4 | A8 z4 | c8 B4 | c8 z4 | d8 c4 | B4 A4 ^G4 ||[M:4/4] A6 B2 | c2 c2 c2 c2 | (c4 B2) c2 | %9
w: Hear my|cry,|Hear my|cry,|Hear my|cry, * O|God! At-|tend un- to my|prayer, * At-|
 d2 d2 d2 d2 | (e4 d2) e2 | f2 d2 c2 B2 | A8 | z8 | z8 | z8 | z8 | z8 | z8 | z8 | z8 | z8 | %22
w: tend un- to my|prayer, * At-|tend un- to my|prayer.||||||||||
 c2 c2 c2 c2 | B8 | c2 d2 e2 ^d2 | e8 | a2 e2 f2 d2 | c4 B4 | A6 B2 | c4 e2 e2 | d4 B2 B2 | c8 |: %32
w: Leaad me to the|rock,|Lead me to the|rock,|Lead me, Lead me|to the|rock, the|rock that is|high- er than|I.|
 A6 ^G2 | A2 B2 c2 B2 | A4 A2 z2 | c6 B2 | c2 d2 e2 d2 | c4 B2 c2 | d4 d2 d2 | e2 d2 c2 B2 | %40
w: God, be|mer- ci- ful un-|to us.|God, be|mer- ci- ful un-|to us, and|bless us, and|cause Thy face to|
 A6 z2 | z4 z2 ^G2 | A6 f2 | e2 d2 c2 B2 | A4 ^G4 | A4 A4 :|[M:2/2] z4 A3 B |: cccc (c2 B2) | %48
w: shine.|to|shine, And|cause Thy face to|shine up-|on us.|Let Thy|peo- ple praise Thee, O *|
 c4 z2 dd | dddd (d2 c2) | c4 z2 Bc | BA z2 z4 | e2 d2 c/d/cB/c/B | A4 e2 ef | ec z2 z4 | %55
w: God, Let Thy|peo- ple praise Thee, O *|God, Let the|peo- ple,|praise Thee, O~ _ _ _ _ _|God, Let all the|peo- ple,|
 z4 e2 ef | ec z2 z4 | z4 e2 ef | ed (c2 B2 AG | ABcd e2) z2 | (dBdc B4) |1 A4 A3 B :|2 A4 z4 |: %63
w: Let all the|peo- ple,|Let all the|peo- ple praise~ _ _ _|_ _ _ _ _|praise~ _ _ _ _|Thee. Let the|Thee.|
 e2 ee efed | c2 B2 c2 B2 | c4 e2 ef | edcB A2 G2 | A2 G2 A3 B | c2 B2 c3 d | e2 f2 e3 d | %70
w: O let the na- * tions be|glad, and sing for|joy; O let the|na- * tions be glad, and|sing for joy, and|sing for joy, and|sing for joy, For|
 cBAB cdef | e2 d2 c>BA>B | c2 c2 c2 z A | B2 B2 B2 z G | A2 A2 A3 c | e2 d2 c3 B | A6 z2 :| %77
w: God * * shall judge * * the|peo ple right- eous- ly, For|God shall judge, For|God shall judge, For|God shall judge the|peo- ple right- eous-|ly.|
[M:2/4] cc BB | AA GG | AA dd | AA ee | d3 ^d | ee z2 | AA BB | cc dd | e2 d2 | cc z2 | B3 B | %88
w: Hal- le- lu- jah,|Hal- le- lu- jah,|Hal- le- lu- jah,|Hal- le- lu- jah,|Hal- le-|lu- jah,|Hal- le- lu- jah,|Hal- le- lu- jah,|Hal- le-|lu- jah,|Hal- le-|
 A2 A2 ||[M:4/4] F4 E2 z2 | (A2 B2 cA B2) | A8 |] %92
w: lu- jah,|A- men,|A- * * * *|men.|
V:3
 A,8 E,4 | A,8 z4 | A,8 G,4 | C,8 z4 | G,8 A,4 | D,8 E,4 ||[M:4/4] A,,6 A,,2 | %7
w: |||||||
 A,,2 A,,2 A,,2 A,,2 | E,6 A,2 | G,2 G,2 G,2 G,2 | C,4 z2 C,2 | D,2 D,2 E,2 E,,2 | A,,8 | %13
w: ||||||
 A,6 ^G,2 | (A,,2 B,,2) C,2 D,2 | E,4 E,2 E,2 | D,4 E,4 | A,8 | z4 C2 C2 | B,2 B,2 A,2 A,2 | %20
w: From the|end * of the|earth will I|cry to|Thee,|When my|heart is ov- er-|
 ^G,4 A,4 | (E,2 D,2 C,2) B,,2 | C,2 C,2 C,2 C,2 | G,8 | A,2 ^G,2 A,2 B,2 | E,8 | F,2 E,2 D,2 D,2 | %27
w: whelm- ed,|Lead~ * * me,||||||
 E,4 E,4 | A,,6 E,2 | A,4 E,2 E,2 | G,4 G,,2 G,,2 | C,8 |: A,6 E,2 | F,2 D,2 E,2 E,2 | %34
w: |||||||
 A,,4 A,,2 z2 | C6 G,2 | C2 G,2 C,2 G,,2 | C,4 G,,2 C,2 | G,4 G,2 G,2 | C,2 D,2 E,2 E,2 | %40
w: ||||||
 A,,6 D,2 | E,2 D,2 C,2 B,,2 | A,,6 B,,2 | C,2 D,2 E,2 F,2 | D,4 E,4 | A,,4 A,,4 :| %46
w: * And|cause Thy face to|shine, *||||
[M:2/2] z4 A,3 E, |: A,A,A,A, (A,2 E,2) | A,4 z2 B,B, | G,G, D,2 D,2 z2 | (F,2 G,2) A,2 z2 | %51
w: |||* * praise Thee|O * God,|
 z4 E,E,E,E, | z4 E,4 | A,,4 z4 | z8 | z4 E,2 E,E, | E,E, A,2 G,2 F,/G,/F, | E,4 z4 | z4 E,2 E,E, | %59
w: Let the peo- ple|praise|Thee,|||||Let all the|
 E,E, (A,2 G,F,E,F, | D,4) E,4 |1 A,,4 A,3 E, :|2 A,,4 z4 |: E,2 E,E, E,D,C,D, | E,2 E,2 E,2 E,2 | %65
w: peo- ple praise,~ _ _ _ _|_ praise|Thee. * *||||
 A,4 A,2 E,D, | C,D,E,E, F,2 E,2 | F,2 E,2 F,3 G, | A,2 E,2 A,3 F, | E,2 B,,2 E,3 G, | %70
w: |||||
 A,2 E,2 A,2 F,2 | E,2 G,2 A,>G,A,>E, | A,2 A,2 A,2 z A,, | E,2 E,2 E,2 z E, | F,2 F,2 F,3 F, | %75
w: |||||
 E,2 G,2 A,3 E, | A,,6 z2 :|[M:2/4] z4 | z4 | A,A, G,G, | F,F, G,G, | B,3 B,, | E,E, z2 | %83
w: ||||||||
 A,A, G,G, | F,F, B,B, | C2 B,2 | A,A, z2 | E,3 E, | A,,2 A,,2 ||[M:4/4] F,4 E,2 z2 | %90
w: |||||||
 (D,2 B,,2 E,4) | A,,8 |] %92
w: ||

